X:1
T:[ID 5-58]
T:[ID 5-58]
T:Bezeichnung standardisiert: Overb\"orscher Tanz; Overb\"oerscher Tantz In dieser Quelle auch als: Overboerscher Tantz
T:Urheber unbekannt Datum in der hier transkribierten schriftlichen Quelle: 1773
C:Urheber unbekannt
C:Datum in der hier transkribierten schriftlichen Quelle: 1773
L:1/8
M:4/4
K:C
V:1 treble 
V:1
 A | d3 e | f3 g | a3 b | a3 g | fe d2 | ed c2 | d2 A/G/F/E/ | D3 :: a |"^[sic]" ff/e/f/d/c/A/ | %11
 aff/e/d/c/ A/ |"^[sic]" ag f2 d2 |"^[sic]" ag f2 d2 |"^[sic]" ag f2 d2 |"^[sic]" ag f2 d2 :| %16

